X: 10138
T: Din Tarrant's
R: polka
M: 2/4
K: Bminor
B/c/|dB fB|dB fe/d/|c/B/A/c/ eA|cA ce|
fb ba|fb ba|fa fe/d/|c/B/A B>c|
dB fB|dB fe/d/|c/B/A/c/ e/c/A/B/|c/B/A/c/ ec/e/|
fb ba|fb ba|fa fe/d/|c/B/A B2||
|:a>f df|A/B/c/d/ e2|g/f/e/d/ cA|Bc df|
a>f df|A/B/c/d/ e2|g/f/e/d/ cA|1 Bc df:|2 Bc d>c||

